X:130
T:B130-  Dulcina
S:(2nd/2)
Q:1/4=120
L:1/4
M:C|
K:F
f(a/2g/2)fc|AFcc|fcf(a/2g/2)|e(d/2c/2)c2|\
f(a/2g/2)fc|AFcc|f3/2c/2d(c/2B/2)|A(G/2F/2)F2||\
Ad/2c/2df|fdea|ad (b/2a/2) (g/2f/2)|(e/2f/2) (e/2d/2)d3/2d/2|\
f(a/2g/2)fc|AFcc|fcd(c/2B/2)|A(G/2F/2)F2|]
